Newaita-dark/actions/32/align-horizontal-bottom-out.svg

<svg height="32" viewBox="0 0 32 32" width="32" xmlns="http://www.w3.org/2000/svg"><g fill="#e0e0e0"><path d="m29.105469 16.125c0 .367188-.292969.664062-.660157.664062h-25.136718c-.367188 0-.664063-.296874-.664063-.664062 0-.363281.296875-.660156.664063-.660156h25.136718c.367188 0 .660157.296875.660157.660156zm0 0"/><path d="m19.84375 4.21875c-1.464844 0-2.644531 1.179688-2.644531 2.648438v3.96875c0 1.464843 1.179687 2.644531 2.644531 2.644531h3.972656c1.464844 0 2.644532-1.179688 2.644532-2.644531v-3.96875c0-1.46875-1.179688-2.648438-2.644532-2.648438zm.664062 2.648438h2.644532c.367187 0 .664062.292968.664062.660156v2.644531c0 .367187-.296875.664063-.664062.664063h-2.644532c-.367187 0-.664062-.296876-.664062-.664063v-2.644531c0-.367188.296875-.660156.664062-.660156zm0 0"/><path d="m7.9375 2.894531c-1.464844 0-2.644531 1.183594-2.644531 2.648438v5.292969c0 1.464843 1.179687 2.644531 2.644531 2.644531h3.96875c1.46875 0 2.648438-1.179688 2.648438-2.644531v-5.292969c0-1.464844-1.179688-2.648438-2.648438-2.648438zm.664062 2.648438h2.644532c.367187 0 .660156.292969.660156.660156v3.96875c0 .367187-.292969.664063-.660156.664063h-2.644532c-.367187 0-.664062-.296876-.664062-.664063v-3.96875c0-.367187.296875-.660156.664062-.660156zm0 0"/><path d="m26.460938 21.417969c0-1.464844-1.179688-2.644531-2.644532-2.644531h-5.292968c-1.464844 0-2.648438 1.179687-2.648438 2.644531v3.96875c0 1.46875 1.183594 2.648437 2.648438 2.648437h5.292968c1.464844 0 2.644532-1.179687 2.644532-2.648437zm0 0"/></g></svg>

<?xml version="1.0" encoding="UTF-8"?>
<svg xmlns="http://www.w3.org/2000/svg" xmlns:xlink="http://www.w3.org/1999/xlink" width="32px" height="32px" viewBox="0 0 32 32" version="1.1">
<g id="surface1">
<path style=" stroke:none;fill-rule:nonzero;fill:rgb(87.843138%,87.843138%,87.843138%);fill-opacity:1;" d="M 29.105469 16.125 C 29.105469 16.492188 28.8125 16.789062 28.445312 16.789062 L 3.308594 16.789062 C 2.941406 16.789062 2.644531 16.492188 2.644531 16.125 C 2.644531 15.761719 2.941406 15.464844 3.308594 15.464844 L 28.445312 15.464844 C 28.8125 15.464844 29.105469 15.761719 29.105469 16.125 Z M 29.105469 16.125 "/>
<path style=" stroke:none;fill-rule:nonzero;fill:rgb(87.843138%,87.843138%,87.843138%);fill-opacity:1;" d="M 19.84375 4.21875 C 18.378906 4.21875 17.199219 5.398438 17.199219 6.867188 L 17.199219 10.835938 C 17.199219 12.300781 18.378906 13.480469 19.84375 13.480469 L 23.816406 13.480469 C 25.28125 13.480469 26.460938 12.300781 26.460938 10.835938 L 26.460938 6.867188 C 26.460938 5.398438 25.28125 4.21875 23.816406 4.21875 Z M 20.507812 6.867188 L 23.152344 6.867188 C 23.519531 6.867188 23.816406 7.160156 23.816406 7.527344 L 23.816406 10.171875 C 23.816406 10.539062 23.519531 10.835938 23.152344 10.835938 L 20.507812 10.835938 C 20.140625 10.835938 19.84375 10.539062 19.84375 10.171875 L 19.84375 7.527344 C 19.84375 7.160156 20.140625 6.867188 20.507812 6.867188 Z M 20.507812 6.867188 "/>
<path style=" stroke:none;fill-rule:nonzero;fill:rgb(87.843138%,87.843138%,87.843138%);fill-opacity:1;" d="M 7.9375 2.894531 C 6.472656 2.894531 5.292969 4.078125 5.292969 5.542969 L 5.292969 10.835938 C 5.292969 12.300781 6.472656 13.480469 7.9375 13.480469 L 11.90625 13.480469 C 13.375 13.480469 14.554688 12.300781 14.554688 10.835938 L 14.554688 5.542969 C 14.554688 4.078125 13.375 2.894531 11.90625 2.894531 Z M 8.601562 5.542969 L 11.246094 5.542969 C 11.613281 5.542969 11.90625 5.835938 11.90625 6.203125 L 11.90625 10.171875 C 11.90625 10.539062 11.613281 10.835938 11.246094 10.835938 L 8.601562 10.835938 C 8.234375 10.835938 7.9375 10.539062 7.9375 10.171875 L 7.9375 6.203125 C 7.9375 5.835938 8.234375 5.542969 8.601562 5.542969 Z M 8.601562 5.542969 "/>
<path style=" stroke:none;fill-rule:nonzero;fill:rgb(87.843138%,87.843138%,87.843138%);fill-opacity:1;" d="M 26.460938 21.417969 C 26.460938 19.953125 25.28125 18.773438 23.816406 18.773438 L 18.523438 18.773438 C 17.058594 18.773438 15.875 19.953125 15.875 21.417969 L 15.875 25.386719 C 15.875 26.855469 17.058594 28.035156 18.523438 28.035156 L 23.816406 28.035156 C 25.28125 28.035156 26.460938 26.855469 26.460938 25.386719 Z M 26.460938 21.417969 "/>
</g>
</svg>
